img/vue系列/logo.svg

<svg width="410" height="404" viewBox="0 0 410 404" fill="none" xmlns="http://www.w3.org/2000/svg">
<path d="M399.641 59.5246L215.643 388.545C211.844 395.338 202.084 395.378 198.228 388.618L10.5817 59.5563C6.38087 52.1896 12.6802 43.2665 21.0281 44.7586L205.223 77.6824C206.398 77.8924 207.601 77.8904 208.776 77.6763L389.119 44.8058C397.439 43.2894 403.768 52.1434 399.641 59.5246Z" fill="url(#paint0_linear)"/>
<path d="M292.965 1.5744L156.801 28.2552C154.563 28.6937 152.906 30.5903 152.771 32.8664L144.395 174.33C144.198 177.662 147.258 180.248 150.51 179.498L188.42 170.749C191.967 169.931 195.172 173.055 194.443 176.622L183.18 231.775C182.422 235.487 185.907 238.661 189.532 237.56L212.947 230.446C216.577 229.344 220.065 232.527 219.297 236.242L201.398 322.875C200.278 328.294 207.486 331.249 210.492 326.603L212.5 323.5L323.454 102.072C325.312 98.3645 322.108 94.137 318.036 94.9228L279.014 102.454C275.347 103.161 272.227 99.746 273.262 96.1583L298.731 7.86689C299.767 4.27314 296.636 0.855181 292.965 1.5744Z" fill="url(#paint1_linear)"/>
<defs>
<linearGradient id="paint0_linear" x1="6.00017" y1="32.9999" x2="235" y2="344" gradientUnits="userSpaceOnUse">
<stop stop-color="#41D1FF"/>
<stop offset="1" stop-color="#BD34FE"/>
</linearGradient>
<linearGradient id="paint1_linear" x1="194.651" y1="8.81818" x2="236.076" y2="292.989" gradientUnits="userSpaceOnUse">
<stop stop-color="#FFEA83"/>
<stop offset="0.0833333" stop-color="#FFDD35"/>
<stop offset="1" stop-color="#FFA800"/>
</linearGradient>
</defs>
</svg>

<svg width="410" height="404" viewBox="0 0 410 404" fill="none" xmlns="http://www.w3.org/2000/svg"><path d="m399.641 59.525-183.998 329.02c-3.799 6.793-13.559 6.833-17.415.073L10.582 59.556C6.38 52.19 12.68 43.266 21.028 44.76l184.195 32.923c1.175.21 2.378.208 3.553-.006l180.343-32.87c8.32-1.517 14.649 7.337 10.522 14.719z" fill="url(#a)"/><path d="M292.965 1.574 156.801 28.255a5 5 0 0 0-4.03 4.611l-8.376 141.464c-.197 3.332 2.863 5.918 6.115 5.168l37.91-8.749c3.547-.818 6.752 2.306 6.023 5.873l-11.263 55.153c-.758 3.712 2.727 6.886 6.352 5.785l23.415-7.114c3.63-1.102 7.118 2.081 6.35 5.796l-17.899 86.633c-1.12 5.419 6.088 8.374 9.094 3.728l2.008-3.103 110.954-221.428c1.858-3.707-1.346-7.935-5.418-7.15l-39.022 7.532c-3.667.707-6.787-2.708-5.752-6.296l25.469-88.291c1.036-3.594-2.095-7.012-5.766-6.293z" fill="url(#b)"/><defs><linearGradient id="a" x1="6" y1="33" x2="235" y2="344" gradientUnits="userSpaceOnUse"><stop stop-color="#41D1FF"/><stop offset="1" stop-color="#BD34FE"/></linearGradient><linearGradient id="b" x1="194.651" y1="8.818" x2="236.076" y2="292.989" gradientUnits="userSpaceOnUse"><stop stop-color="#FFEA83"/><stop offset=".083" stop-color="#FFDD35"/><stop offset="1" stop-color="#FFA800"/></linearGradient></defs></svg>
